careers/base/static/css/protocol/img/icons/social/mozilla/black.svg

<svg width="16px" height="16px" viewBox="0 0 16 16" version="1.1" xmlns="http://www.w3.org/2000/svg" xmlns:xlink="http://www.w3.org/1999/xlink" style="background: #000000;"><path d="M13.6235294,10.0235294 L14.5411765,10.0235294 L14.5411765,11.5294118 L11.6470588,11.5294118 L11.6470588,7.62352941 C11.6470588,6.42352941 11.2470588,5.97647059 10.4705882,5.97647059 C9.52941176,5.97647059 9.15294118,6.65882353 9.15294118,7.6 L9.15294118,10 L10.0705882,10 L10.0705882,11.5058824 L7.17647059,11.5058824 L7.17647059,7.62352941 C7.17647059,6.42352941 6.77647059,5.97647059 6,5.97647059 C5.05882353,5.97647059 4.68235294,6.65882353 4.68235294,7.6 L4.68235294,10 L6,10 L6,11.5058824 L1.76470588,11.5058824 L1.76470588,10 L2.68235294,10 L2.68235294,6.11764706 L1.76470588,6.11764706 L1.76470588,4.61176471 L4.65882353,4.61176471 L4.65882353,5.64705882 C5.08235294,4.91764706 5.78823529,4.47058824 6.75294118,4.47058824 C7.74117647,4.47058824 8.65882353,4.94117647 8.98823529,5.95294118 C9.36470588,5.03529412 10.1411765,4.47058824 11.2235294,4.47058824 C12.4705882,4.47058824 13.6,5.22352941 13.6,6.84705882 L13.6,10.0235294 L13.6235294,10.0235294 Z" id="icon" fill="#FFFFFF" fill-rule="nonzero"></path></svg>

<svg width="16" height="16" viewBox="0 0 16 16" xmlns="http://www.w3.org/2000/svg" style="background:#000"><path d="M13.624 10.024h.917v1.505h-2.894V7.624c0-1.2-.4-1.648-1.176-1.648-.942 0-1.318.683-1.318 1.624V10h.918v1.506H7.176V7.624c0-1.2-.4-1.648-1.176-1.648-.941 0-1.318.683-1.318 1.624V10H6v1.506H1.765V10h.917V6.118h-.917V4.612h2.894v1.035c.423-.73 1.13-1.176 2.094-1.176.988 0 1.906.47 2.235 1.482.377-.918 1.153-1.482 2.236-1.482 1.247 0 2.376.753 2.376 2.376v3.177h.024z" fill="#FFF"/></svg>
